src/self-guiding-trail-black-24.svg

<?xml version="1.0" encoding="UTF-8" standalone="no"?>
<svg width="24px" height="24px" viewBox="0 0 24 24" version="1.1" xmlns="http://www.w3.org/2000/svg" xmlns:xlink="http://www.w3.org/1999/xlink" xmlns:sketch="http://www.bohemiancoding.com/sketch/ns">
    <!-- Generator: Sketch 3.2.2 (9983) - http://www.bohemiancoding.com/sketch -->
    <title>self-guiding-trail-black-24</title>
    <desc>Created with Sketch.</desc>
    <defs></defs>
    <g id="Page-1" stroke="none" stroke-width="1" fill="none" fill-rule="evenodd" sketch:type="MSPage">
        <g id="Group-3" sketch:type="MSLayerGroup" transform="translate(3.000000, 3.000000)" fill="#0A0B09" opacity="0.1">
            <path d="M2.79064158,4.31010895 L1.56064158,4.01010895 C1.33064158,3.96010895 1.10064158,4.10010895 1.05064158,4.33010895 L0.0106415847,8.61010895 C-0.0393584153,8.83010895 0.0906415847,9.06010895 0.320641585,9.12010895 L1.56064158,9.41010895 C1.73064158,9.45010895 1.91064158,9.38010895 2.00064158,9.23010895 L2.00064158,6.53010895 L2.68064158,6.53010895 L3.00064158,5.21010895 L3.00064158,4.53010895 L3.06064158,4.53010895 C3.01064158,4.43010895 2.91064158,4.34010895 2.79064158,4.31010895" id="Fill-397" sketch:type="MSShapeGroup"></path>
            <path d="M8.81,9.39009068 L6.73,8.87009068 L6.15,6.54009068 C5.38,6.00009068 4.65,6.00009068 4.65,6.00009068 C4.23,5.99009068 3.93,6.81009068 3.71,7.00009068 L3.02,7.00009068 L2.71,8.32009068 L2.71,10.0000907 L2.31,10.0000907 L0.02,19.6400907 L0,19.8500907 C0,20.4200907 0.47,20.8800907 1.04,20.8800907 C1.51,20.8800907 1.9,20.5700907 2.03,20.1400907 L3.82,12.7500907 L5.52,20.1000907 C5.63,20.5500907 6.04,20.8900907 6.53,20.8900907 C7.1,20.8900907 7.57,20.4200907 7.57,19.8500907 L7.54,19.6200907 L5.2,9.86009068 L5.4,9.00009068 L5.55,9.68009068 C5.7,10.1200907 6.1,10.1700907 6.1,10.1700907 L8.51,10.7800907 L8.65,10.7900907 C9.04,10.7900907 9.36,10.4700907 9.36,10.0800907 C9.36,9.75009068 9.12,9.46009068 8.81,9.39009068" id="Fill-398" sketch:type="MSShapeGroup"></path>
            <path d="M12,0 L12,4 L9,1.98 L12,0" id="Fill-399" sketch:type="MSShapeGroup"></path>
            <path d="M12,20.8775 L12,13.7975 C12.43,13.3575 15.14,10.4475 15.14,10.4475 C15.3,10.2875 15.39,10.0675 15.39,9.8475 C15.39,9.6275 15.31,9.4175 15.14,9.2475 C14.81,8.9175 14.27,8.9175 13.94,9.2475 L10,12.8775 L10,20.8775 L12,20.8775" id="Fill-400" sketch:type="MSShapeGroup"></path>
            <path d="M15,21 L15,21 C14.45,21 14,20.56 14,20 C14,19.45 14.45,19 15,19 C15.55,19 16,19.45 16,20 C16,20.56 15.55,21 15,21" id="Fill-401" sketch:type="MSShapeGroup"></path>
            <path d="M18,21 L18,21 C17.45,21 17,20.56 17,20 C17,19.45 17.45,19 18,19 C18.55,19 19,19.45 19,20 C19,20.56 18.55,21 18,21" id="Fill-402" sketch:type="MSShapeGroup"></path>
            <path d="M21,18 L21,18 C20.45,18 20,17.56 20,17 C20,16.45 20.45,16 21,16 C21.55,16 22,16.45 22,17 C22,17.56 21.55,18 21,18" id="Fill-403" sketch:type="MSShapeGroup"></path>
            <path d="M21,21 L21,21 C20.45,21 20,20.56 20,20 C20,19.45 20.45,19 21,19 C21.55,19 22,19.45 22,20 C22,20.56 21.55,21 21,21" id="Fill-404" sketch:type="MSShapeGroup"></path>
            <path d="M21,15 L21,15 C20.45,15 20,14.56 20,14 C20,13.45 20.45,13 21,13 C21.55,13 22,13.45 22,14 C22,14.56 21.55,15 21,15" id="Fill-405" sketch:type="MSShapeGroup"></path>
            <path d="M21,6 L21,6 C20.45,6 20,5.56 20,5 C20,4.45 20.45,4 21,4 C21.55,4 22,4.45 22,5 C22,5.56 21.55,6 21,6" id="Fill-406" sketch:type="MSShapeGroup"></path>
            <path d="M15,3 L15,3 C14.45,3 14,2.56 14,2 C14,1.45 14.45,1 15,1 C15.55,1 16,1.45 16,2 C16,2.56 15.55,3 15,3" id="Fill-407" sketch:type="MSShapeGroup"></path>
            <path d="M18,3 L18,3 C17.45,3 17,2.56 17,2 C17,1.45 17.45,1 18,1 C18.55,1 19,1.45 19,2 C19,2.56 18.55,3 18,3" id="Fill-408" sketch:type="MSShapeGroup"></path>
            <path d="M21,9 L21,9 C20.45,9 20,8.56 20,8 C20,7.45 20.45,7 21,7 C21.55,7 22,7.45 22,8 C22,8.56 21.55,9 21,9" id="Fill-409" sketch:type="MSShapeGroup"></path>
            <path d="M21,3 L21,3 C20.45,3 20,2.56 20,2 C20,1.45 20.45,1 21,1 C21.55,1 22,1.45 22,2 C22,2.56 21.55,3 21,3" id="Fill-410" sketch:type="MSShapeGroup"></path>
            <path d="M21,12 L21,12 C20.45,12 20,11.56 20,11 C20,10.45 20.45,10 21,10 C21.55,10 22,10.45 22,11 C22,11.56 21.55,12 21,12" id="Fill-411" sketch:type="MSShapeGroup"></path>
            <path d="M5.69,5 L5.31,5 C4.59,5 4,4.41 4,3.69 L4,3.32 C4,2.59 4.59,2 5.31,2 L5.69,2 C6.41,2 7,2.59 7,3.32 L7,3.69 C7,4.41 6.41,5 5.69,5" id="Fill-412" sketch:type="MSShapeGroup"></path>
        </g>
        <g id="Group-2" sketch:type="MSLayerGroup" transform="translate(2.000000, 2.000000)" fill="#0A0B09" opacity="0.2">
            <path d="M2.79064158,4.31010895 L1.56064158,4.01010895 C1.33064158,3.96010895 1.10064158,4.10010895 1.05064158,4.33010895 L0.0106415847,8.61010895 C-0.0393584153,8.83010895 0.0906415847,9.06010895 0.320641585,9.12010895 L1.56064158,9.41010895 C1.73064158,9.45010895 1.91064158,9.38010895 2.00064158,9.23010895 L2.00064158,6.53010895 L2.68064158,6.53010895 L3.00064158,5.21010895 L3.00064158,4.53010895 L3.06064158,4.53010895 C3.01064158,4.43010895 2.91064158,4.34010895 2.79064158,4.31010895" id="Fill-397" sketch:type="MSShapeGroup"></path>
            <path d="M8.81,9.39009068 L6.73,8.87009068 L6.15,6.54009068 C5.38,6.00009068 4.65,6.00009068 4.65,6.00009068 C4.23,5.99009068 3.93,6.81009068 3.71,7.00009068 L3.02,7.00009068 L2.71,8.32009068 L2.71,10.0000907 L2.31,10.0000907 L0.02,19.6400907 L0,19.8500907 C0,20.4200907 0.47,20.8800907 1.04,20.8800907 C1.51,20.8800907 1.9,20.5700907 2.03,20.1400907 L3.82,12.7500907 L5.52,20.1000907 C5.63,20.5500907 6.04,20.8900907 6.53,20.8900907 C7.1,20.8900907 7.57,20.4200907 7.57,19.8500907 L7.54,19.6200907 L5.2,9.86009068 L5.4,9.00009068 L5.55,9.68009068 C5.7,10.1200907 6.1,10.1700907 6.1,10.1700907 L8.51,10.7800907 L8.65,10.7900907 C9.04,10.7900907 9.36,10.4700907 9.36,10.0800907 C9.36,9.75009068 9.12,9.46009068 8.81,9.39009068" id="Fill-398" sketch:type="MSShapeGroup"></path>
            <path d="M12,0 L12,4 L9,1.98 L12,0" id="Fill-399" sketch:type="MSShapeGroup"></path>
            <path d="M12,20.8775 L12,13.7975 C12.43,13.3575 15.14,10.4475 15.14,10.4475 C15.3,10.2875 15.39,10.0675 15.39,9.8475 C15.39,9.6275 15.31,9.4175 15.14,9.2475 C14.81,8.9175 14.27,8.9175 13.94,9.2475 L10,12.8775 L10,20.8775 L12,20.8775" id="Fill-400" sketch:type="MSShapeGroup"></path>
            <path d="M15,21 L15,21 C14.45,21 14,20.56 14,20 C14,19.45 14.45,19 15,19 C15.55,19 16,19.45 16,20 C16,20.56 15.55,21 15,21" id="Fill-401" sketch:type="MSShapeGroup"></path>
            <path d="M18,21 L18,21 C17.45,21 17,20.56 17,20 C17,19.45 17.45,19 18,19 C18.55,19 19,19.45 19,20 C19,20.56 18.55,21 18,21" id="Fill-402" sketch:type="MSShapeGroup"></path>
            <path d="M21,18 L21,18 C20.45,18 20,17.56 20,17 C20,16.45 20.45,16 21,16 C21.55,16 22,16.45 22,17 C22,17.56 21.55,18 21,18" id="Fill-403" sketch:type="MSShapeGroup"></path>
            <path d="M21,21 L21,21 C20.45,21 20,20.56 20,20 C20,19.45 20.45,19 21,19 C21.55,19 22,19.45 22,20 C22,20.56 21.55,21 21,21" id="Fill-404" sketch:type="MSShapeGroup"></path>
            <path d="M21,15 L21,15 C20.45,15 20,14.56 20,14 C20,13.45 20.45,13 21,13 C21.55,13 22,13.45 22,14 C22,14.56 21.55,15 21,15" id="Fill-405" sketch:type="MSShapeGroup"></path>
            <path d="M21,6 L21,6 C20.45,6 20,5.56 20,5 C20,4.45 20.45,4 21,4 C21.55,4 22,4.45 22,5 C22,5.56 21.55,6 21,6" id="Fill-406" sketch:type="MSShapeGroup"></path>
            <path d="M15,3 L15,3 C14.45,3 14,2.56 14,2 C14,1.45 14.45,1 15,1 C15.55,1 16,1.45 16,2 C16,2.56 15.55,3 15,3" id="Fill-407" sketch:type="MSShapeGroup"></path>
            <path d="M18,3 L18,3 C17.45,3 17,2.56 17,2 C17,1.45 17.45,1 18,1 C18.55,1 19,1.45 19,2 C19,2.56 18.55,3 18,3" id="Fill-408" sketch:type="MSShapeGroup"></path>
            <path d="M21,9 L21,9 C20.45,9 20,8.56 20,8 C20,7.45 20.45,7 21,7 C21.55,7 22,7.45 22,8 C22,8.56 21.55,9 21,9" id="Fill-409" sketch:type="MSShapeGroup"></path>
            <path d="M21,3 L21,3 C20.45,3 20,2.56 20,2 C20,1.45 20.45,1 21,1 C21.55,1 22,1.45 22,2 C22,2.56 21.55,3 21,3" id="Fill-410" sketch:type="MSShapeGroup"></path>
            <path d="M21,12 L21,12 C20.45,12 20,11.56 20,11 C20,10.45 20.45,10 21,10 C21.55,10 22,10.45 22,11 C22,11.56 21.55,12 21,12" id="Fill-411" sketch:type="MSShapeGroup"></path>
            <path d="M5.69,5 L5.31,5 C4.59,5 4,4.41 4,3.69 L4,3.32 C4,2.59 4.59,2 5.31,2 L5.69,2 C6.41,2 7,2.59 7,3.32 L7,3.69 C7,4.41 6.41,5 5.69,5" id="Fill-412" sketch:type="MSShapeGroup"></path>
        </g>
        <g id="Group" sketch:type="MSLayerGroup" transform="translate(1.000000, 1.000000)" fill="#0A0B09">
            <path d="M2.79064158,4.31010895 L1.56064158,4.01010895 C1.33064158,3.96010895 1.10064158,4.10010895 1.05064158,4.33010895 L0.0106415847,8.61010895 C-0.0393584153,8.83010895 0.0906415847,9.06010895 0.320641585,9.12010895 L1.56064158,9.41010895 C1.73064158,9.45010895 1.91064158,9.38010895 2.00064158,9.23010895 L2.00064158,6.53010895 L2.68064158,6.53010895 L3.00064158,5.21010895 L3.00064158,4.53010895 L3.06064158,4.53010895 C3.01064158,4.43010895 2.91064158,4.34010895 2.79064158,4.31010895" id="Fill-397" sketch:type="MSShapeGroup"></path>
            <path d="M8.81,9.39009068 L6.73,8.87009068 L6.15,6.54009068 C5.38,6.00009068 4.65,6.00009068 4.65,6.00009068 C4.23,5.99009068 3.93,6.81009068 3.71,7.00009068 L3.02,7.00009068 L2.71,8.32009068 L2.71,10.0000907 L2.31,10.0000907 L0.02,19.6400907 L0,19.8500907 C0,20.4200907 0.47,20.8800907 1.04,20.8800907 C1.51,20.8800907 1.9,20.5700907 2.03,20.1400907 L3.82,12.7500907 L5.52,20.1000907 C5.63,20.5500907 6.04,20.8900907 6.53,20.8900907 C7.1,20.8900907 7.57,20.4200907 7.57,19.8500907 L7.54,19.6200907 L5.2,9.86009068 L5.4,9.00009068 L5.55,9.68009068 C5.7,10.1200907 6.1,10.1700907 6.1,10.1700907 L8.51,10.7800907 L8.65,10.7900907 C9.04,10.7900907 9.36,10.4700907 9.36,10.0800907 C9.36,9.75009068 9.12,9.46009068 8.81,9.39009068" id="Fill-398" sketch:type="MSShapeGroup"></path>
            <path d="M12,0 L12,4 L9,1.98 L12,0" id="Fill-399" sketch:type="MSShapeGroup"></path>
            <path d="M12,20.8775 L12,13.7975 C12.43,13.3575 15.14,10.4475 15.14,10.4475 C15.3,10.2875 15.39,10.0675 15.39,9.8475 C15.39,9.6275 15.31,9.4175 15.14,9.2475 C14.81,8.9175 14.27,8.9175 13.94,9.2475 L10,12.8775 L10,20.8775 L12,20.8775" id="Fill-400" sketch:type="MSShapeGroup"></path>
            <path d="M15,21 L15,21 C14.45,21 14,20.56 14,20 C14,19.45 14.45,19 15,19 C15.55,19 16,19.45 16,20 C16,20.56 15.55,21 15,21" id="Fill-401" sketch:type="MSShapeGroup"></path>
            <path d="M18,21 L18,21 C17.45,21 17,20.56 17,20 C17,19.45 17.45,19 18,19 C18.55,19 19,19.45 19,20 C19,20.56 18.55,21 18,21" id="Fill-402" sketch:type="MSShapeGroup"></path>
            <path d="M21,18 L21,18 C20.45,18 20,17.56 20,17 C20,16.45 20.45,16 21,16 C21.55,16 22,16.45 22,17 C22,17.56 21.55,18 21,18" id="Fill-403" sketch:type="MSShapeGroup"></path>
            <path d="M21,21 L21,21 C20.45,21 20,20.56 20,20 C20,19.45 20.45,19 21,19 C21.55,19 22,19.45 22,20 C22,20.56 21.55,21 21,21" id="Fill-404" sketch:type="MSShapeGroup"></path>
            <path d="M21,15 L21,15 C20.45,15 20,14.56 20,14 C20,13.45 20.45,13 21,13 C21.55,13 22,13.45 22,14 C22,14.56 21.55,15 21,15" id="Fill-405" sketch:type="MSShapeGroup"></path>
            <path d="M21,6 L21,6 C20.45,6 20,5.56 20,5 C20,4.45 20.45,4 21,4 C21.55,4 22,4.45 22,5 C22,5.56 21.55,6 21,6" id="Fill-406" sketch:type="MSShapeGroup"></path>
            <path d="M15,3 L15,3 C14.45,3 14,2.56 14,2 C14,1.45 14.45,1 15,1 C15.55,1 16,1.45 16,2 C16,2.56 15.55,3 15,3" id="Fill-407" sketch:type="MSShapeGroup"></path>
            <path d="M18,3 L18,3 C17.45,3 17,2.56 17,2 C17,1.45 17.45,1 18,1 C18.55,1 19,1.45 19,2 C19,2.56 18.55,3 18,3" id="Fill-408" sketch:type="MSShapeGroup"></path>
            <path d="M21,9 L21,9 C20.45,9 20,8.56 20,8 C20,7.45 20.45,7 21,7 C21.55,7 22,7.45 22,8 C22,8.56 21.55,9 21,9" id="Fill-409" sketch:type="MSShapeGroup"></path>
            <path d="M21,3 L21,3 C20.45,3 20,2.56 20,2 C20,1.45 20.45,1 21,1 C21.55,1 22,1.45 22,2 C22,2.56 21.55,3 21,3" id="Fill-410" sketch:type="MSShapeGroup"></path>
            <path d="M21,12 L21,12 C20.45,12 20,11.56 20,11 C20,10.45 20.45,10 21,10 C21.55,10 22,10.45 22,11 C22,11.56 21.55,12 21,12" id="Fill-411" sketch:type="MSShapeGroup"></path>
            <path d="M5.69,5 L5.31,5 C4.59,5 4,4.41 4,3.69 L4,3.32 C4,2.59 4.59,2 5.31,2 L5.69,2 C6.41,2 7,2.59 7,3.32 L7,3.69 C7,4.41 6.41,5 5.69,5" id="Fill-412" sketch:type="MSShapeGroup"></path>
        </g>
    </g>
</svg>

<?xml version="1.0" encoding="utf-8"?>
<!-- Generator: Adobe Illustrator 18.0.0, SVG Export Plug-In . SVG Version: 6.00 Build 0)  -->
<!DOCTYPE svg PUBLIC "-//W3C//DTD SVG 1.1//EN" "http://www.w3.org/Graphics/SVG/1.1/DTD/svg11.dtd" [
	<!ENTITY ns_flows "http://ns.adobe.com/Flows/1.0/">
	<!ENTITY ns_extend "http://ns.adobe.com/Extensibility/1.0/">
	<!ENTITY ns_ai "http://ns.adobe.com/AdobeIllustrator/10.0/">
	<!ENTITY ns_graphs "http://ns.adobe.com/Graphs/1.0/">
	<!ENTITY st0 "opacity:0.1;">
	<!ENTITY st1 "fill:#010101;">
	<!ENTITY st2 "opacity:0.2;">
]>
<svg version="1.1" id="Layer_1" xmlns:x="&ns_extend;" xmlns:i="&ns_ai;" xmlns:graph="&ns_graphs;"
	 xmlns="http://www.w3.org/2000/svg" xmlns:xlink="http://www.w3.org/1999/xlink" xmlns:a="http://ns.adobe.com/AdobeSVGViewerExtensions/3.0/"
	 x="0px" y="0px" width="24px" height="23px" viewBox="0 0 24 23" style="enable-background:new 0 0 24 23;" xml:space="preserve">
<g style="&st0;">
	<path style="&st1;" d="M4.8,6.8L3.6,6.5C3.3,6.4,3.1,6.6,3,6.8l-1,4.3c-0.1,0.2,0.1,0.5,0.3,0.5l1.2,0.3c0.2,0,0.3,0,0.4-0.2V9h0.7
		L5,7.7V7h0.1C5,6.9,4.9,6.8,4.8,6.8z"/>
	<path style="&st1;" d="M11.1,11.4L9,10.9L8.4,8.5C7.7,8,6.9,8,6.9,8C6.5,8,6.2,8.8,6,9H5.3L5,10.3V12H4.6l-2.3,9.6v0l0,0.2
		c0,0.6,0.5,1,1,1c0.5,0,0.9-0.3,1-0.7l1.8-7.4l1.7,7.4c0.1,0.5,0.5,0.8,1,0.8c0.6,0,1-0.5,1-1l0-0.2l-2.3-9.8L7.7,11l0.1,0.7
		c0.1,0.4,0.5,0.5,0.5,0.5l2.4,0.6l0.1,0c0.4,0,0.7-0.3,0.7-0.7C11.6,11.7,11.4,11.5,11.1,11.4z"/>
	<polygon style="&st1;" points="14,2 14,6 11,4 	"/>
	<path style="&st1;" d="M14,23c0,0,0-6.4,0-7.1c0.4-0.4,3.1-3.3,3.1-3.3c0.2-0.2,0.2-0.4,0.2-0.6c0-0.2-0.1-0.4-0.2-0.6
		c-0.3-0.3-0.9-0.3-1.2,0L12,15v8H14z"/>
	<path style="&st1;" d="M17,23L17,23c-0.6,0-1-0.4-1-1s0.4-1,1-1s1,0.4,1,1S17.6,23,17,23z"/>
	<path style="&st1;" d="M20,23L20,23c-0.6,0-1-0.4-1-1s0.4-1,1-1s1,0.4,1,1S20.6,23,20,23z"/>
	<path style="&st1;" d="M23,20L23,20c-0.6,0-1-0.4-1-1s0.4-1,1-1s1,0.4,1,1S23.6,20,23,20z"/>
	<path style="&st1;" d="M23,23L23,23c-0.6,0-1-0.4-1-1s0.4-1,1-1s1,0.4,1,1S23.6,23,23,23z"/>
	<path style="&st1;" d="M23,17L23,17c-0.6,0-1-0.4-1-1s0.4-1,1-1s1,0.4,1,1S23.6,17,23,17z"/>
	<path style="&st1;" d="M23,8L23,8c-0.6,0-1-0.4-1-1s0.4-1,1-1s1,0.4,1,1S23.6,8,23,8z"/>
	<path style="&st1;" d="M17,5L17,5c-0.6,0-1-0.4-1-1s0.4-1,1-1s1,0.4,1,1S17.6,5,17,5z"/>
	<path style="&st1;" d="M20,5L20,5c-0.6,0-1-0.4-1-1s0.4-1,1-1s1,0.4,1,1S20.6,5,20,5z"/>
	<path style="&st1;" d="M23,11L23,11c-0.6,0-1-0.4-1-1s0.4-1,1-1s1,0.4,1,1S23.6,11,23,11z"/>
	<path style="&st1;" d="M23,5L23,5c-0.6,0-1-0.4-1-1s0.4-1,1-1s1,0.4,1,1S23.6,5,23,5z"/>
	<path style="&st1;" d="M23,14L23,14c-0.6,0-1-0.4-1-1s0.4-1,1-1s1,0.4,1,1S23.6,14,23,14z"/>
	<path style="&st1;" d="M7.7,7H7.3C6.6,7,6,6.4,6,5.7V5.3C6,4.6,6.6,4,7.3,4h0.4C8.4,4,9,4.6,9,5.3v0.4C9,6.4,8.4,7,7.7,7z"/>
</g>
<g style="&st2;">
	<path style="&st1;" d="M3.8,5.8L2.6,5.5C2.3,5.4,2.1,5.6,2,5.8l-1,4.3c-0.1,0.2,0.1,0.5,0.3,0.5l1.2,0.3c0.2,0,0.3,0,0.4-0.2V8h0.7
		L4,6.7V6h0.1C4,5.9,3.9,5.8,3.8,5.8z"/>
	<path style="&st1;" d="M10.1,10.4L8,9.9L7.4,7.5C6.7,7,5.9,7,5.9,7C5.5,7,5.2,7.8,5,8H4.3L4,9.3V11H3.6l-2.3,9.6v0l0,0.2
		c0,0.6,0.5,1,1,1c0.5,0,0.9-0.3,1-0.7l1.8-7.4l1.7,7.4c0.1,0.5,0.5,0.8,1,0.8c0.6,0,1-0.5,1-1l0-0.2l-2.3-9.8L6.7,10l0.1,0.7
		c0.1,0.4,0.5,0.5,0.5,0.5l2.4,0.6l0.1,0c0.4,0,0.7-0.3,0.7-0.7C10.6,10.7,10.4,10.5,10.1,10.4z"/>
	<polygon style="&st1;" points="13,1 13,5 10,3 	"/>
	<path style="&st1;" d="M13,22c0,0,0-6.4,0-7.1c0.4-0.4,3.1-3.3,3.1-3.3c0.2-0.2,0.2-0.4,0.2-0.6c0-0.2-0.1-0.4-0.2-0.6
		c-0.3-0.3-0.9-0.3-1.2,0L11,14v8H13z"/>
	<path style="&st1;" d="M16,22L16,22c-0.6,0-1-0.4-1-1s0.4-1,1-1c0.6,0,1,0.4,1,1S16.6,22,16,22z"/>
	<path style="&st1;" d="M19,22L19,22c-0.6,0-1-0.4-1-1s0.4-1,1-1s1,0.4,1,1S19.6,22,19,22z"/>
	<path style="&st1;" d="M22,19L22,19c-0.6,0-1-0.4-1-1s0.4-1,1-1s1,0.4,1,1S22.6,19,22,19z"/>
	<path style="&st1;" d="M22,22L22,22c-0.6,0-1-0.4-1-1s0.4-1,1-1s1,0.4,1,1S22.6,22,22,22z"/>
	<path style="&st1;" d="M22,16L22,16c-0.6,0-1-0.4-1-1s0.4-1,1-1s1,0.4,1,1S22.6,16,22,16z"/>
	<path style="&st1;" d="M22,7L22,7c-0.6,0-1-0.4-1-1s0.4-1,1-1s1,0.4,1,1S22.6,7,22,7z"/>
	<path style="&st1;" d="M16,4L16,4c-0.6,0-1-0.4-1-1s0.4-1,1-1c0.6,0,1,0.4,1,1S16.6,4,16,4z"/>
	<path style="&st1;" d="M19,4L19,4c-0.6,0-1-0.4-1-1s0.4-1,1-1s1,0.4,1,1S19.6,4,19,4z"/>
	<path style="&st1;" d="M22,10L22,10c-0.6,0-1-0.4-1-1s0.4-1,1-1s1,0.4,1,1S22.6,10,22,10z"/>
	<path style="&st1;" d="M22,4L22,4c-0.6,0-1-0.4-1-1s0.4-1,1-1s1,0.4,1,1S22.6,4,22,4z"/>
	<path style="&st1;" d="M22,13L22,13c-0.6,0-1-0.4-1-1s0.4-1,1-1s1,0.4,1,1S22.6,13,22,13z"/>
	<path style="&st1;" d="M6.7,6H6.3C5.6,6,5,5.4,5,4.7V4.3C5,3.6,5.6,3,6.3,3h0.4C7.4,3,8,3.6,8,4.3v0.4C8,5.4,7.4,6,6.7,6z"/>
</g>
<g>
	<path style="&st1;" d="M2.8,4.8L1.6,4.5C1.3,4.4,1.1,4.6,1,4.8L0,9.1C0,9.3,0.1,9.5,0.3,9.6l1.2,0.3c0.2,0,0.3,0,0.4-0.2V7h0.7
		L3,5.7V5h0.1C3,4.9,2.9,4.8,2.8,4.8z"/>
	<path style="&st1;" d="M9.1,9.4L7,8.9L6.4,6.5C5.7,6,4.9,6,4.9,6C4.5,6,4.2,6.8,4,7H3.3L3,8.3V10H2.6l-2.3,9.6v0l0,0.2
		c0,0.6,0.5,1,1,1c0.5,0,0.9-0.3,1-0.7l1.8-7.4l1.7,7.4c0.1,0.5,0.5,0.8,1,0.8c0.6,0,1-0.5,1-1l0-0.2L5.5,9.9L5.7,9l0.1,0.7
		c0.1,0.4,0.5,0.5,0.5,0.5l2.4,0.6l0.1,0c0.4,0,0.7-0.3,0.7-0.7C9.6,9.7,9.4,9.5,9.1,9.4z"/>
	<polygon style="&st1;" points="12,0 12,4 9,2 	"/>
	<path style="&st1;" d="M12,21c0,0,0-6.4,0-7.1c0.4-0.4,3.1-3.3,3.1-3.3c0.2-0.2,0.2-0.4,0.2-0.6c0-0.2-0.1-0.4-0.2-0.6
		c-0.3-0.3-0.9-0.3-1.2,0L10,13v8H12z"/>
	<path style="&st1;" d="M15,21L15,21c-0.6,0-1-0.4-1-1s0.4-1,1-1s1,0.4,1,1S15.6,21,15,21z"/>
	<path style="&st1;" d="M18,21L18,21c-0.6,0-1-0.4-1-1s0.4-1,1-1s1,0.4,1,1S18.6,21,18,21z"/>
	<path style="&st1;" d="M21,18L21,18c-0.6,0-1-0.4-1-1s0.4-1,1-1s1,0.4,1,1S21.6,18,21,18z"/>
	<path style="&st1;" d="M21,21L21,21c-0.6,0-1-0.4-1-1s0.4-1,1-1s1,0.4,1,1S21.6,21,21,21z"/>
	<path style="&st1;" d="M21,15L21,15c-0.6,0-1-0.4-1-1s0.4-1,1-1s1,0.4,1,1S21.6,15,21,15z"/>
	<path style="&st1;" d="M21,6L21,6c-0.6,0-1-0.4-1-1s0.4-1,1-1s1,0.4,1,1S21.6,6,21,6z"/>
	<path style="&st1;" d="M15,3L15,3c-0.6,0-1-0.4-1-1s0.4-1,1-1s1,0.4,1,1S15.6,3,15,3z"/>
	<path style="&st1;" d="M18,3L18,3c-0.6,0-1-0.4-1-1s0.4-1,1-1s1,0.4,1,1S18.6,3,18,3z"/>
	<path style="&st1;" d="M21,9L21,9c-0.6,0-1-0.4-1-1s0.4-1,1-1s1,0.4,1,1S21.6,9,21,9z"/>
	<path style="&st1;" d="M21,3L21,3c-0.6,0-1-0.4-1-1s0.4-1,1-1s1,0.4,1,1S21.6,3,21,3z"/>
	<path style="&st1;" d="M21,12L21,12c-0.6,0-1-0.4-1-1s0.4-1,1-1s1,0.4,1,1S21.6,12,21,12z"/>
	<path style="&st1;" d="M5.7,5H5.3C4.6,5,4,4.4,4,3.7V3.3C4,2.6,4.6,2,5.3,2h0.4C6.4,2,7,2.6,7,3.3v0.4C7,4.4,6.4,5,5.7,5z"/>
</g>
</svg>
